X:1
T:Devanny's
M:C|
L:1/8
R:Reel
K:D
FE | DFAB AFAB | defe dBAF | DF (3FFF BFAF | E2 ED EGFE |DF (3FFF ADFA|
defe dBAf | efdB AFdB | AFEF D2 :: eg | faab afdf |afef dB (3BBB | ABde fedf |
e3f edBd | Adcd fdcd | edfd edBd | A2 dB AFDF | AFEF D2 :|

